packages/match-icons/sendgrid/svg/check.svg

<svg fill="none" height="16" viewBox="0 0 16 16" width="16" xmlns="http://www.w3.org/2000/svg"><path clip-rule="evenodd" d="m10.1106 5.34682c-1.45572 1.48142-5.81931 5.92198-4.36355 4.44051.04791-.04875-2.42872-3.0941-2.59825-3.26662-.33169-.34129-.83292-.54757-1.30465-.54757-.45332 0-.991393.20253-1.304657.54757-.320635.35629-.5601903.82509-.53807756 1.32765.02211276.49881.18795856.96761.53807756 1.32765 1.230947 1.25639 2.461887 2.50899 3.689147 3.76539.16953.1726.34275.3488.51228.5214.70392.7163 1.9017.7163 2.60562 0 .91768-.9339 1.83167-1.864 2.74936-2.7979 1.4557-1.48139 2.9078-2.95906 4.3636-4.44048.3354-.34129.667-.67882 1.0024-1.02011s.5381-.84385.5381-1.32766c0-.4613-.199-1.00886-.5381-1.32765-.3501-.32628-.8108-.57006-1.3046-.54756-.4865.01875-.9472.18752-1.2973.54756-.9177.93386-1.8317 1.86397-2.7494 2.79782z" fill="#394762" fill-rule="evenodd"/></svg>

<svg width="16" height="16" viewBox="0 0 16 16" fill="none" xmlns="http://www.w3.org/2000/svg">
<path fill-rule="evenodd" clip-rule="evenodd" d="M10.1106 5.34682C8.65488 6.82824 4.29129 11.2688 5.74705 9.78733C5.79496 9.73858 3.31833 6.69323 3.1488 6.52071C2.81711 6.17942 2.31588 5.97314 1.84415 5.97314C1.39083 5.97314 0.852757 6.17567 0.539493 6.52071C0.218858 6.877 -0.0206973 7.3458 0.00141544 7.84836C0.0235282 8.34717 0.189374 8.81597 0.539493 9.17601C1.77044 10.4324 3.00138 11.685 4.22864 12.9414C4.39817 13.114 4.57139 13.2902 4.74092 13.4628C5.44484 14.1791 6.64262 14.1791 7.34654 13.4628C8.26422 12.5289 9.17821 11.5988 10.0959 10.6649C11.5516 9.18351 13.0037 7.70584 14.4595 6.22442C14.7949 5.88313 15.1265 5.5456 15.4619 5.20431C15.7973 4.86302 16 4.36046 16 3.87665C16 3.41535 15.801 2.86779 15.4619 2.549C15.1118 2.22272 14.6511 1.97894 14.1573 2.00144C13.6708 2.02019 13.2101 2.18896 12.86 2.549C11.9423 3.48286 11.0283 4.41297 10.1106 5.34682Z" fill="#394762"/>
</svg>
